motion.svg

<svg fill="currentColor" viewBox="0 0 24 24"><path d="M7 13H3c-.55 0-1-.45-1-1s.45-1 1-1h4c.55 0 1 .45 1 1s-.45 1-1 1M6 8c0-.55-.45-1-1-1H4c-.55 0-1 .45-1 1s.45 1 1 1h1c.55 0 1-.45 1-1m16 4c0 2.76-2.24 5-5 5H4c-.55 0-1-.45-1-1s.45-1 1-1h9c-.42-.58-.75-1.26-.9-2H10c-.55 0-1-.45-1-1s.45-1 1-1h2.1c.15-.74.48-1.42.9-2H8c-.55 0-1-.45-1-1s.45-1 1-1h9c2.76 0 5 2.24 5 5"/></svg>

<svg  viewBox="0 0 24 24" fill="currentColor"><path  d="M7 13H3C2.45 13 2 12.55 2 12S2.45 11 3 11H7C7.55 11 8 11.45 8 12S7.55 13 7 13M6 8C6 7.45 5.55 7 5 7H4C3.45 7 3 7.45 3 8S3.45 9 4 9H5C5.55 9 6 8.55 6 8M22 12C22 14.76 19.76 17 17 17H4C3.45 17 3 16.55 3 16S3.45 15 4 15H13C12.58 14.42 12.25 13.74 12.1 13H10C9.45 13 9 12.55 9 12S9.45 11 10 11H12.1C12.25 10.26 12.58 9.58 13 9H8C7.45 9 7 8.55 7 8S7.45 7 8 7H17C19.76 7 22 9.24 22 12Z"/></svg>
